src/assets/outline/Play.svg

<svg width="24" height="24" viewBox="0 0 24 24"  xmlns="http://www.w3.org/2000/svg">
<path d="M7.87 21.28C7.08 21.28 6.33 21.09 5.67 20.71C4.11 19.81 3.25 17.98 3.25 15.57V8.43999C3.25 6.01999 4.11 4.19999 5.67 3.29999C7.23 2.39999 9.24 2.56999 11.34 3.77999L17.51 7.33999C19.6 8.54999 20.76 10.21 20.76 12.01C20.76 13.81 19.61 15.47 17.51 16.68L11.34 20.24C10.13 20.93 8.95 21.28 7.87 21.28ZM7.87 4.21999C7.33 4.21999 6.85 4.33999 6.42 4.58999C5.34 5.20999 4.75 6.57999 4.75 8.43999V15.56C4.75 17.42 5.34 18.78 6.42 19.41C7.5 20.04 8.98 19.86 10.59 18.93L16.76 15.37C18.37 14.44 19.26 13.25 19.26 12C19.26 10.75 18.37 9.55999 16.76 8.62999L10.59 5.06999C9.61 4.50999 8.69 4.21999 7.87 4.21999Z" />
</svg>

<?xml version="1.0" encoding="UTF-8"?>
<svg width="24" height="24" viewBox="0 0 24 24" xmlns="http://www.w3.org/2000/svg">
 <path d="m7.87 21.28c-0.79 0-1.54-0.19-2.2-0.57-1.56-0.9-2.42-2.73-2.42-5.14v-7.13c0-2.42 0.86-4.24 2.42-5.14s3.57-0.73 5.67 0.48l6.17 3.56c2.09 1.21 3.25 2.87 3.25 4.67s-1.15 3.46-3.25 4.67l-6.17 3.56c-1.21 0.69-2.39 1.04-3.47 1.04zm0-17.06c-0.54 0-1.02 0.12-1.45 0.37-1.08 0.62-1.67 1.99-1.67 3.85v7.12c0 1.86 0.59 3.22 1.67 3.85s2.56 0.45 4.17-0.48l6.17-3.56c1.61-0.93 2.5-2.12 2.5-3.37s-0.89-2.44-2.5-3.37l-6.17-3.56c-0.98-0.56-1.9-0.85-2.72-0.85z"/>
</svg>
